!!!COM: Bartok, Bela
!!!OTL: Through the Keys
!!!ONM: 104
!!!OPR: Mikrokosmos, Vol. IV
!! Boosey & Hawkes Ltd. (London) 1955, copyright 1940 pp.16-17
!! irregular meter signature
**kern	**kern
*M2/4	*M2/4
=1	=1
{8AA	{8A
8D	8d
8C#	8c#
8D	8d
=2	=2
4E	4e
8F#	8f#
8D}	8d}
=3	=3
{8E	{8e
8F#	8f#
8G	8g
8A	8a
=4	=4
4G	4g
8F#	8f#
8E}	8e}
=5	=5
{8D	{8d
8C#	8c#
8E	8e
8D	8d
=6	=6
8C#	8c#
8BB	8B
8AA}	8A}
8r	8r
=7	=7
{8C#	{8c#
8F#	8f#
8E#	8e#
8F#	8f#
=8	=8
4G#	4g#
8A	8a
8En}	8en}
=9	=9
{8G#	{8g#
8A	8a
8B	8b
8c#	8cc#
=10	=10
4B	4b
8A	8a
8F#}	8f#}
=11	=11
{8E	{8e
8F#	8f#
8G#	8g#
8F#	8f#
=12	=12
8E	8e
8BB	8B
8C#}	8c#}
8r	8r
=13	=13
{8E	{8e
8G#	8g#
8A	8a
8B	8b
=14	=14
8c#	8cc#
4d#	4dd#
8e}	8ee}
=15	=15
{8A-	{8a-
8c	8cc
8d-	8dd-
8e-	8ee-
=16	=16
8f	8ff
4g	4gg
8a-}	8aa-}
=17	=17
{8g	{8gg
8f	8ff
8g	8gg
8e-}	8ee-}
=18	=18
{4f	{4ff
8dn	8ddn
8c	8cc
=19	=19
8B-	8b-
8c	8cc
8B-}	8b-}
8r	8r
=20	=20
{8g	{8gg
8e-	8ee-
8d	8dd
8c	8cc
=21	=21
8B-	8b-
4A	4a
8G}	8g}
=22	=22
{8e	{8ee
8cn	8ccn
8B	8b
8A}	8a}
=23	=23
*M3/4	*M3/4
{4G	{4g
8F#	8f#
8E	8e
8F#	8f#
8G}	8g}
=24	=24
*M2/4	*M2/4
{4A	{4a
8F#	8f#
8E	8e
=25	=25
8D	8d
8E	8e
8D}	8d}
8r	8r
=26	=26
!! Labelled Part "B" in the score.
{8FF#	{8A
8BB	8d
8AA#	8c#
8BB	8d
=27	=27
4C#	4e
8D	8f#
8BB}	8d}
=28	=28
{8C#	{8e
8D	8f#
8E	8g
8F#	8a
=29	=29
4E	4g
8D	8f#
8C#}	8e}
=30	=30
{8BB	{8d
8AA#	8c#
8C#	8e
8BB	8d
=31	=31
8AA	8c#
8EE	8B
8AA}	8A}
8r	8r
=32	=32
{8AA	{8c#
8D	8f#
8C#	8e#
8D#	8f#
=33	=33
4E#	4g#
8F#	8a
8C#}	8en}
=34	=34
{8E	{8g#
8F#	8a
8G#	8b
8A	8cc#
=35	=35
4G#	4b
8F#	8a
8D#}	8f#}
=36	=36
{8C#	{8e
8D#	8f#
8E	8g#
8D#	8f#
=37	=37
8C#	8e
8GG#	8B
8C#}	8c#}
8r	8r
=38	=38
{8GG#	{8e
8BB	8g#
8C#	8a
8D#	8b
=39	=39
8E	8cc#
4F#	4dd#
8G#}	8ee}
=40	=40
{8C	{8a-
8E-	8cc
8F	8dd-
8G	8ee-
=41	=41
8A-	8ff
4B-	4gg
8c}	8aa-}
=42	=42
{8B-	{8gg
8A-	8ff
8B-	8gg
8G}	8ee-}
=43	=43
{4F	{4ff
8G	8ddn
8An	8cc
=44	=44
8B-	8b-
8F	8cc
8B-}	8b-}
8r	8r
=45	=45
{8G	{8gg
8c	8ee-
8B-	8dd
8A-	8cc
=46	=46
8G	8b-
4F	4an
8E-}	8g}
=47	=47
{8D	{8ee
8F#	8ccn
8G#	8b
8A}	8a}
=48	=48
*M3/4	*M3/4
{4B	{4g
8A	8f#
8G	8e
8F#	8f#
8E}	8g}
=49	=49
*M2/4	*M2/4
{4F#	{4a
8D	8f#
8AA	8e
=50	=50
8BB	8d
8C#	8e
8D}	8d}
8r	8r
==	==
*-	*-
